icons/ppe_gloves_fill.svg

<svg width="48" height="48" viewBox="0 0 48 48" fill="none" xmlns="http://www.w3.org/2000/svg">
<path fill-rule="evenodd" clip-rule="evenodd" d="M24 6.5C24 5.67157 24.6716 5 25.5 5C26.3284 5 27 5.67157 27 6.5V19H28V8.5C28 7.67157 28.6716 7 29.5 7C30.3284 7 31 7.67157 31 8.5V19V24L33.9227 20.3466C34.5322 19.5848 35.6231 19.4154 36.4349 19.9566C37.2993 20.5329 37.5329 21.7007 36.9566 22.5651L32.7073 28.9391C31.7907 30.314 30.5346 31.3913 29.0908 32.0898L30 43H18L18.9049 32.1411C17.1641 31.0908 16 29.1814 16 27V19V10.5C16 9.67157 16.6716 9 17.5 9C18.3284 9 19 9.67157 19 10.5V19H20V8.5C20 7.67157 20.6716 7 21.5 7C22.3284 7 23 7.67157 23 8.5V19H24V6.5ZM12 12H14V28C14 29.8502 15.0919 31.7842 16.5166 32.6438L17.0611 32.9723L16.2161 41H14.205L14.9431 33.9885C13.1808 32.6467 12 30.286 12 28V12Z" fill="black"/>
</svg>

<svg
  xmlns="http://www.w3.org/2000/svg"
  width="24"
  height="24"
  viewBox="0 0 24 24"
  fill="none"
  stroke="currentColor"
  stroke-width="2"
  stroke-linecap="round"
  stroke-linejoin="round"
>
  <path
    fill-rule="evenodd"
    d="M24 6.5a1.5 1.5 0 0 1 3 0V19h1V8.5a1.5 1.5 0 0 1 3 0V24l2.923-3.653a1.881 1.881 0 0 1 3.034 2.218l-4.25 6.374a9.1 9.1 0 0 1-3.616 3.15L30 43H18l.905-10.859A6 6 0 0 1 16 27V10.5a1.5 1.5 0 0 1 3 0V19h1V8.5a1.5 1.5 0 0 1 3 0V19h1zM12 12h2v16c0 1.85 1.092 3.784 2.517 4.644l.544.328L16.216 41h-2.011l.738-7.011C13.181 32.647 12 30.286 12 28z"
    clip-rule="evenodd"
  />
</svg>
